client/public/img/box__red--icon.svg

<svg width="24" height="24" viewBox="0 0 24 24" fill="none" xmlns="http://www.w3.org/2000/svg">
<path fill-rule="evenodd" clip-rule="evenodd" d="M7.54339 19.9519C8.25739 19.9519 8.83839 20.5319 8.83839 21.2459C8.83839 21.9599 8.25739 22.5409 7.54339 22.5409C6.82939 22.5409 6.24939 21.9599 6.24939 21.2459C6.24939 20.5319 6.82939 19.9519 7.54339 19.9519ZM18.8237 19.9519C19.5387 19.9519 20.1197 20.5319 20.1197 21.2459C20.1197 21.9599 19.5387 22.5409 18.8237 22.5409C18.1097 22.5409 17.5297 21.9599 17.5297 21.2459C17.5297 20.5319 18.1097 19.9519 18.8237 19.9519ZM3.26759 3.00949L5.34759 3.36949C5.68259 3.42849 5.93759 3.70649 5.96659 4.04649L6.20159 6.84749L7.07544 6.84786C7.21804 6.84793 7.35913 6.84799 7.49871 6.84805L9.10302 6.84882C9.2309 6.84888 9.35735 6.84894 9.48238 6.84901L11.2538 6.84998C11.3651 6.85004 11.475 6.85011 11.5836 6.85018L12.825 6.85097C12.9233 6.85103 13.0204 6.8511 13.1163 6.85117L14.2081 6.85197C14.2943 6.85204 14.3793 6.85211 14.4632 6.85217L15.4151 6.85299C15.49 6.85306 15.5638 6.85313 15.6365 6.8532L16.2621 6.85382C16.3285 6.85389 16.3939 6.85396 16.4582 6.85403L17.1828 6.85487C17.2393 6.85494 17.2949 6.85501 17.3495 6.85508L17.9613 6.85594C18.0087 6.85601 18.0552 6.85608 18.101 6.85615L18.4898 6.8568C18.5305 6.85687 18.5704 6.85695 18.6096 6.85702L19.0427 6.8579C19.0758 6.85797 19.1082 6.85804 19.1399 6.85812L19.4065 6.85878C19.4341 6.85886 19.461 6.85893 19.4873 6.85901L19.773 6.85991C19.7945 6.85998 19.8153 6.86006 19.8356 6.86014L20.0034 6.86082C20.0204 6.8609 20.037 6.86097 20.053 6.86105L20.2227 6.86197C20.2351 6.86205 20.247 6.86213 20.2584 6.86221L20.351 6.86291C20.3601 6.86299 20.3688 6.86307 20.3772 6.86314L20.4438 6.86385C20.4503 6.86393 20.4564 6.86401 20.4623 6.86409L20.5076 6.86481C20.5118 6.86489 20.5159 6.86497 20.5197 6.86505L20.5483 6.86578C20.551 6.86586 20.5534 6.86594 20.5557 6.86602L20.5764 6.867C20.5777 6.86708 20.5789 6.86716 20.58 6.86725C20.5897 6.86815 20.5912 6.86832 20.5926 6.86849C21.1496 6.94949 21.6396 7.24049 21.9736 7.68849C22.3076 8.13549 22.4476 8.68649 22.3676 9.23849L21.4186 15.7965C21.2396 17.0445 20.1556 17.9855 18.8956 17.9855H7.97459C6.65759 17.9855 5.54259 16.9575 5.43559 15.6425L4.51959 4.74849L3.01259 4.48849C2.60359 4.41649 2.33059 4.02949 2.40059 3.62049C2.47259 3.21149 2.86759 2.94549 3.26759 3.00949ZM6.87483 8.34783L6.32759 8.34749L6.93059 15.5195C6.97459 16.0715 7.42559 16.4855 7.97659 16.4855H18.8936C19.4146 16.4855 19.8596 16.0975 19.9336 15.5825L20.8836 9.02349C20.9056 8.86749 20.8666 8.71149 20.7716 8.58549C20.6776 8.45849 20.5396 8.37649 20.3836 8.35449C20.3764 8.35476 20.3591 8.35502 20.3323 8.35524L20.2235 8.35587C20.2008 8.35596 20.1757 8.35605 20.1485 8.35613L19.582 8.35699C19.5342 8.35702 19.4845 8.35705 19.433 8.35708L18.101 8.35702C18.0267 8.357 17.9509 8.35696 17.8739 8.35693L16.3538 8.35601C16.2627 8.35594 16.1706 8.35587 16.0776 8.3558L15.2175 8.35511C15.1195 8.35503 15.0208 8.35495 14.9214 8.35486L14.0103 8.35406C13.9074 8.35397 13.8041 8.35387 13.7002 8.35378L13.0727 8.3532C12.9674 8.35311 12.8617 8.35301 12.7559 8.35291L11.7982 8.35201C11.6914 8.35191 11.5846 8.35181 11.4777 8.35171L10.8371 8.35112C10.7304 8.35102 10.6239 8.35092 10.5176 8.35082L9.88243 8.35025C9.77709 8.35015 9.67205 8.35006 9.56738 8.34997L8.63687 8.34917C8.53495 8.34908 8.43357 8.349 8.33281 8.34892L7.15688 8.34802C7.06199 8.34795 6.96795 8.34789 6.87483 8.34783ZM17.2875 10.5438C17.7015 10.5438 18.0375 10.8798 18.0375 11.2938C18.0375 11.7078 17.7015 12.0438 17.2875 12.0438H14.5155C14.1005 12.0438 13.7655 11.7078 13.7655 11.2938C13.7655 10.8798 14.1005 10.5438 14.5155 10.5438H17.2875Z" fill="white"/>
</svg>

<svg xmlns="http://www.w3.org/2000/svg" width="24" height="24" fill="none" xmlns:v="https://vecta.io/nano"><path fill-rule="evenodd" d="M7.543 19.952c.714 0 1.295.58 1.295 1.294s-.581 1.295-1.295 1.295-1.294-.581-1.294-1.295.58-1.294 1.294-1.294zm11.28 0c.715 0 1.296.58 1.296 1.294s-.581 1.295-1.296 1.295-1.294-.581-1.294-1.295.58-1.294 1.294-1.294zM3.268 3.009l2.08.36c.335.059.59.337.619.677l.235 2.801h.874.423l1.604.001h.379l1.771.001h.33l1.241.001h.291l1.092.001h.255l.952.001h.221l.626.001h.196l.725.001h.167l.612.001h.14l.389.001h.12l.433.001h.097l.267.001h.081l.286.001h.063l.168.001h.05l.17.001h.036l.093.001h.026l.067.001.064.001.041.001.028.001c.573.082 1.063.373 1.397.821s.474.998.394 1.55l-.949 6.558c-.179 1.248-1.263 2.189-2.523 2.189H7.975c-1.317 0-2.432-1.028-2.539-2.343L4.52 4.748l-1.507-.26a.75.75 0 0 1-.612-.868.76.76 0 0 1 .867-.611zm3.607 5.338h-.547l.603 7.172a1.04 1.04 0 0 0 1.046.966h10.917c.521 0 .966-.388 1.04-.903l.95-6.559c.022-.156-.017-.312-.112-.438a.58.58 0 0 0-.388-.231l-.051.001-.109.001h-.075l-.566.001h-.149-1.332-.227l-1.52-.001h-.276l-.86-.001h-.296l-.911-.001h-.31l-.628-.001h-.317l-.958-.001h-.32l-.641-.001h-.319l-.635-.001h-.315l-.931-.001h-.304l-1.176-.001h-.282zm10.413 2.196a.75.75 0 1 1 0 1.5h-2.772a.75.75 0 1 1 0-1.5h2.772z" fill="#fff"/></svg>
